kora/status/symbolic/power-profile-power-saver-symbolic.svg

<svg xmlns="http://www.w3.org/2000/svg" width="16" height="16" version="1.1">
 <path style="fill:#dfdfdf" d="M 8 1 C 5.951 1 3.90175 1.7798906 2.34375 3.3378906 C -0.77225 6.4538906 -0.77225 11.534391 2.34375 14.650391 C 3.0683483 15.400022 4.3129192 14.679331 4.0234375 13.677734 L 4.1171875 13.583984 C 4.4298102 13.642171 4.7650054 13.549448 5.0078125 13.306641 L 7.40625 10.908203 A 2 2 0 0 0 8 11 A 2 2 0 0 0 10 9 A 2 2 0 0 0 8 7 A 2 2 0 0 0 6 8.9941406 A 2 2 0 0 0 6 9 A 2 2 0 0 0 6.0527344 9.4335938 L 3.59375 11.892578 C 3.3641892 12.122139 3.2710591 12.432952 3.3105469 12.730469 C 2.5692107 11.803817 2.1147869 10.679349 2.015625 9.4941406 L 3 9.4941406 L 3 8.4941406 L 2.015625 8.4941406 C 2.1196818 7.2504265 2.6100013 6.070372 3.4179688 5.1191406 L 4.1113281 5.8125 L 4.8183594 5.1054688 L 4.1269531 4.4140625 C 4.194771 4.3563902 4.2658445 4.3053942 4.3359375 4.2519531 L 4.3320312 4.2519531 C 4.3620813 4.2287121 4.3933281 4.2062728 4.4238281 4.1835938 C 4.4505581 4.1641367 4.4768722 4.143874 4.5039062 4.125 C 5.3613417 3.5090095 6.3875209 3.1135591 7.5 3.0214844 L 7.5 4 L 8.5 4 L 8.5 3.0214844 C 9.6001233 3.1122914 10.615131 3.4993862 11.466797 4.1035156 C 11.532547 4.1485056 11.596208 4.1976156 11.660156 4.2460938 C 11.732096 4.3006268 11.805465 4.353035 11.875 4.4121094 L 11.183594 5.1054688 L 11.890625 5.8125 L 12.582031 5.1191406 C 13.389998 6.070372 13.880318 7.2504265 13.984375 8.4941406 L 13 8.4941406 L 13 9.4941406 L 13.984375 9.4941406 C 13.880318 10.737855 13.389998 11.917909 12.582031 12.869141 L 11.888672 12.175781 L 11.181641 12.882812 L 11.978516 13.679688 C 11.696501 14.677296 12.931932 15.392093 13.65625 14.650391 C 16.77225 11.534391 16.77225 6.4538906 13.65625 3.3378906 C 12.156806 1.8373392 10.121314 0.99601204 8 1 z"/>
</svg>

<svg xmlns="http://www.w3.org/2000/svg" style="clip-rule:evenodd;fill-rule:evenodd;stroke-linejoin:round;stroke-miterlimit:2" version="1.1" viewBox="0 0 16 16">
 <defs>
  <style id="current-color-scheme" type="text/css">
   .ColorScheme-Text { color:#dfdfdf; } .ColorScheme-Highlight { color:#4285f4; } .ColorScheme-NeutralText { color:#ff9800; } .ColorScheme-PositiveText { color:#4caf50; } .ColorScheme-NegativeText { color:#f44336; }
  </style>
 </defs>
 <path style="fill-rule:nonzero;fill:currentColor;" class="ColorScheme-Text" d="m8 1c-2.049 0-4.098 0.78-5.656 2.338-3.116 3.116-3.116 8.196-0 11.312 0.724 0.75 1.969 0.029 1.679-0.972l0.094-0.094c0.313 0.058 0.648-0.035 0.891-0.277l2.398-2.399c0.192 0.061 0.393 0.091 0.594 0.092 1.097-0 2-0.903 2-2s-0.903-2-2-2c-1.095-0-1.997 0.899-2 1.994v6e-3c2e-3 0.146 0.019 0.291 0.053 0.434l-2.459 2.459c-0.23 0.229-0.323 0.54-0.283 0.837-0.742-0.926-1.196-2.051-1.295-3.236h0.984v-1h-0.984c0.104-1.244 0.594-2.424 1.402-3.375l0.693 0.694 0.707-0.708-0.691-0.691c0.068-0.058 0.139-0.109 0.209-0.162h-4e-3c0.03-0.023 0.061-0.046 0.092-0.068 0.027-0.02 0.053-0.04 0.08-0.059 0.857-0.616 1.884-1.011 2.996-1.104v0.979h1v-0.979c1.1 0.091 2.115 0.478 2.967 1.083 0.066 0.045 0.129 0.094 0.193 0.142 0.072 0.055 0.145 0.107 0.215 0.166l-0.691 0.693 0.707 0.707 0.691-0.693c0.808 0.951 1.298 2.131 1.402 3.375h-0.984v1h0.984c-0.104 1.244-0.594 2.424-1.402 3.375l-0.693-0.693-0.707 0.707 0.797 0.797c-0.282 0.997 0.953 1.712 1.677 0.97 3.116-3.116 3.116-8.196 0-11.312-1.499-1.501-3.535-2.342-5.656-2.338z"/>
</svg>
